P2# sphere.pgm -- a demo image written for this collection.# Plain (ASCII) PGM: magic, width height, maxval, then the pixels.48 24255 25  27  29  31  33  34  36  38  40  42  44  46  48  50  52  53 55  57  59  61  63  65  67  69  71  72  74  76  78  80  82  84 86  88  90  91  93  95  97  99 101 103 105 107 109 110 112 114 25  27  29  31  33  34  36  38  40  42  44  46  48  50  52  57 65  72  78  83  88  92  96  99 101 103 104 104 103 102 101  98 95  91  90  91  93  95  97  99 101 103 105 107 109 110 112 114 25  27  29  31  33  34  36  38  40  42  44  48  58  68  77  85 93  99 106 111 116 120 124 127 129 131 131 132 131 130 128 126123 119 115 110 104  98  97  99 101 103 105 107 109 110 112 114 25  27  29  31  33  34  36  38  40  51  63  73  84  93 102 110118 125 131 136 141 146 149 152 154 156 157 157 157 155 154 151148 144 140 135 129 123 116 108 101 103 105 107 109 110 112 114 25  27  29  31  33  34  36  49  61  74  85  96 106 116 125 133140 147 153 159 164 168 172 175 177 178 179 180 179 178 176 174171 167 163 158 152 145 138 131 122 113 105 107 109 110 112 114 25  27  29  31  33  41  55  69  81  94 105 116 126 136 145 153160 167 173 179 184 188 192 195 197 198 199 199 199 198 196 194191 187 183 177 172 165 158 151 142 133 123 113 109 110 112 114 25  27  29  31  43  58  72  86  99 111 122 133 143 153 162 170178 184 191 196 201 205 209 212 214 216 216 217 216 215 213 211208 204 200 195 189 183 176 168 159 150 141 130 119 110 112 114 25  27  29  42  58  73  87 100 113 125 137 148 158 168 176 185192 199 205 211 216 220 223 226 229 230 231 231 231 230 228 226223 219 214 209 204 197 190 182 174 165 155 145 134 122 112 114 25  27  38  54  70  85  99 112 125 137 149 160 170 180 188 197204 211 217 223 228 232 235 238 241 242 243 243 243 242 240 238235 231 226 221 216 209 202 194 186 177 167 157 146 134 122 114 25  31  47  64  79  94 108 122 134 147 158 169 179 189 198 206213 220 227 232 237 241 245 248 250 251 252 253 252 251 249 247244 240 236 231 225 218 211 204 195 186 176 166 155 143 131 118 25  37  54  70  86 101 115 128 141 153 165 176 186 195 204 213220 227 233 239 244 248 251 254 255 255 255 255 255 255 255 254250 247 242 237 231 225 218 210 202 193 183 173 162 150 138 125 25  41  58  74  90 105 119 132 145 157 169 180 190 199 208 217224 231 237 243 248 252 255 255 255 255 255 255 255 255 255 255254 251 246 241 235 229 222 214 206 197 187 177 166 154 142 129 25  43  59  76  91 106 120 134 146 159 170 181 191 201 210 218225 232 238 244 249 253 255 255 255 255 255 255 255 255 255 255255 252 248 243 237 230 223 216 207 198 188 178 167 155 143 130 25  41  58  74  90 105 119 132 145 157 169 180 190 199 208 217224 231 237 243 248 252 255 255 255 255 255 255 255 255 255 255254 251 246 241 235 229 222 214 206 197 187 177 166 154 142 129 25  37  54  70  86 101 115 128 141 153 165 176 186 195 204 213220 227 233 239 244 248 251 254 255 255 255 255 255 255 255 254250 247 242 237 231 225 218 210 202 193 183 173 162 150 138 125 25  31  47  64  79  94 108 122 134 147 158 169 179 189 198 206213 220 227 232 237 241 245 248 250 251 252 253 252 251 249 247244 240 236 231 225 218 211 204 195 186 176 166 155 143 131 118 25  27  38  54  70  85  99 112 125 137 149 160 170 180 188 197204 211 217 223 228 232 235 238 241 242 243 243 243 242 240 238235 231 226 221 216 209 202 194 186 177 167 157 146 134 122 114 25  27  29  42  58  73  87 100 113 125 137 148 158 168 176 185192 199 205 211 216 220 223 226 229 230 231 231 231 230 228 226223 219 214 209 204 197 190 182 174 165 155 145 134 122 112 114 25  27  29  31  43  58  72  86  99 111 122 133 143 153 162 170178 184 191 196 201 205 209 212 214 216 216 217 216 215 213 211208 204 200 195 189 183 176 168 159 150 141 130 119 110 112 114 25  27  29  31  33  41  55  69  81  94 105 116 126 136 145 153160 167 173 179 184 188 192 195 197 198 199 199 199 198 196 194191 187 183 177 172 165 158 151 142 133 123 113 109 110 112 114 25  27  29  31  33  34  36  49  61  74  85  96 106 116 125 133140 147 153 159 164 168 172 175 177 178 179 180 179 178 176 174171 167 163 158 152 145 138 131 122 113 105 107 109 110 112 114 25  27  29  31  33  34  36  38  40  51  63  73  84  93 102 110118 125 131 136 141 146 149 152 154 156 157 157 157 155 154 151148 144 140 135 129 123 116 108 101 103 105 107 109 110 112 114 25  27  29  31  33  34  36  38  40  42  44  48  58  68  77  85 93  99 106 111 116 120 124 127 129 131 131 132 131 130 128 126123 119 115 110 104  98  97  99 101 103 105 107 109 110 112 114 25  27  29  31  33  34  36  38  40  42  44  46  48  50  52  57 65  72  78  83  88  92  96  99 101 103 104 104 103 102 101  98 95  91  90  91  93  95  97  99 101 103 105 107 109 110 112 114